actions/16/distribute-horizontal-page.svg

<!DOCTYPE svg>
<svg viewBox="0 0 16 16" version="1.1" xmlns="http://www.w3.org/2000/svg">
    <defs>
        <style type="text/css" id="current-color-scheme">
            .ColorScheme-Text {
                color:#eff0f1;
            }
        </style>
    </defs>
    <path class="ColorScheme-Text" style="fill:currentColor; fill-opacity:1; stroke:none" d="M 1 15 C 1 10.3333 1 5.66667 1 1 C 5 1 9 1 13 1 C 13.6667 1.66667 14.3333 2.33333 15 3 C 15 7 15 11 15 15 C 10.3333 15 5.66667 15 1 15 Z M 2 14 C 6 14 10 14 14 14 C 14 10.6667 14 7.33333 14 4 C 13.3333 4 12.6667 4 12 4 C 12 3.33333 12 2.66667 12 2 C 8.66667 2 5.33333 2 2 2 C 2 6 2 10 2 14 Z M 3 12 C 3 9.33333 3 6.66667 3 4 C 4.33333 4 5.66667 4 7 4 C 7 6.66667 7 9.33333 7 12 C 5.66667 12 4.33333 12 3 12 Z M 9 12 C 9 9.33333 9 6.66667 9 4 C 9.66667 4 10.3333 4 11 4 C 11 4.33333 11 4.66667 11 5 C 10.6667 5 10.3333 5 10 5 C 10 7 10 9 10 11 C 10.6667 11 11.3333 11 12 11 C 12 9 12 7 12 5 C 12.3333 5 12.6667 5 13 5 C 13 7.33333 13 9.66667 13 12 C 11.6667 12 10.3333 12 9 12 Z M 4 11 C 4.66667 11 5.33333 11 6 11 C 6 9 6 7 6 5 C 5.33333 5 4.66667 5 4 5 C 4 7 4 9 4 11 Z"/>
</svg>

<!DOCTYPE svg>
<svg viewBox="0 0 16 16" version="1.1" xmlns="http://www.w3.org/2000/svg">
    <defs>
<style type="text/css" id="current-color-scheme">.ColorScheme-Text {color:#fcfcfc;}</style>
    </defs>
    <path class="ColorScheme-Text" style="fill:currentColor; fill-opacity:1; stroke:none" d="M 1,13 C 1,11 1,5 1,3 1,1 3,1 3,1 h 10 c 0.6667,0.66667 1.3333,1.33333 2,2 0,0 0,8 0,10 0,2 -2,2 -2,2 H 3 c 0,0 -2,0 -2,-2 z m 2,1 h 10 c 0,0 1,0 1,-1 0,-1 0,-9 0,-9 H 12 V 2 H 3 c 0,0 -1,0 -1,1 0,1 0,9 0,10 0,1 1,1 1,1 z M 3,12 V 4 h 4 v 8 z m 6,0 V 4 h 2 v 1 h -1 v 6 h 2 V 5 h 1 v 7 z M 4,11 H 6 V 5 H 4 Z"/>
</svg>
